Simply-Red-Circles/scalable/emotes/face-smile-grin.svg

<svg xmlns="http://www.w3.org/2000/svg" width="48" height="48" viewBox="0 0 12.7 12.7"><path d="M6.32.05a6.29 6.29 0 0 0-6.3 6.3 6.29 6.29 0 0 0 6.3 6.28 6.29 6.29 0 0 0 6.29-6.3A6.29 6.29 0 0 0 6.3.06l.02-.01zM6.3.98a5.4 5.4 0 0 1 5.4 5.4 5.4 5.4 0 0 1-5.4 5.42A5.4 5.4 0 0 1 .9 6.4 5.4 5.4 0 0 1 6.3.98zM4.22 2.82c-.32-.02-.7.22-1.16.9-.08.13-.01.31.15.24.79-.95 1.22-.8 1.9-.02.15.05.2-.18.15-.22-.32-.44-.64-.88-1.04-.9zm4.37 0c-.31-.02-.68.22-1.15.9-.08.13-.02.31.15.24.78-.95 1.21-.8 1.9-.02.14.05.19-.18.15-.22-.32-.44-.64-.88-1.05-.9zm.95 1.94l-.04.01c-2 1.95-4.09 2.2-6.29 0-.07-.07-.07.1-.07.2s0 .1.07.19c2.1 2.14 4.2 2.09 6.3 0 .06-.08.04-.1.04-.22v-.18zM5.58 7.39c-.06.14-.1.27 0 .39.6.26 1.1.19 1.6 0a.4.4 0 0 0 0-.4c-.5.2-1.03.27-1.6 0z" fill="#a02c2c"/></svg>

<?xml version="1.0" encoding="UTF-8" standalone="no"?>
<svg
   xmlns:dc="http://purl.org/dc/elements/1.1/"
   xmlns:cc="http://creativecommons.org/ns#"
   xmlns:rdf="http://www.w3.org/1999/02/22-rdf-syntax-ns#"
   xmlns:svg="http://www.w3.org/2000/svg"
   xmlns="http://www.w3.org/2000/svg"
   xmlns:sodipodi="http://sodipodi.sourceforge.net/DTD/sodipodi-0.dtd"
   xmlns:inkscape="http://www.inkscape.org/namespaces/inkscape"
   width="48"
   height="48"
   viewBox="0 0 12.7 12.7"
   version="1.1"
   id="svg4"
   sodipodi:docname="face-smile-grin.svg"
   inkscape:version="0.92.4 (5da689c313, 2019-01-14)">
  <metadata
     id="metadata10">
    <rdf:RDF>
      <cc:Work
         rdf:about="">
        <dc:format>image/svg+xml</dc:format>
        <dc:type
           rdf:resource="http://purl.org/dc/dcmitype/StillImage" />
        <dc:title></dc:title>
      </cc:Work>
    </rdf:RDF>
  </metadata>
  <defs
     id="defs8" />
  <sodipodi:namedview
     pagecolor="#ffffff"
     bordercolor="#666666"
     borderopacity="1"
     objecttolerance="10"
     gridtolerance="10"
     guidetolerance="10"
     inkscape:pageopacity="0"
     inkscape:pageshadow="2"
     inkscape:window-width="1087"
     inkscape:window-height="480"
     id="namedview6"
     showgrid="false"
     inkscape:zoom="4.9166667"
     inkscape:cx="2.1355932"
     inkscape:cy="24"
     inkscape:window-x="0"
     inkscape:window-y="25"
     inkscape:window-maximized="0"
     inkscape:current-layer="svg4" />
  <path
     d="m 6.32,0.05 a 6.29,6.29 0 0 0 -6.3,6.3 6.29,6.29 0 0 0 6.3,6.28 6.29,6.29 0 0 0 6.29,-6.3 A 6.29,6.29 0 0 0 6.3,0.06 Z M 6.3,0.98 A 5.4,5.4 0 0 1 11.7,6.38 5.4,5.4 0 0 1 6.3,11.8 5.4,5.4 0 0 1 0.9,6.4 5.4,5.4 0 0 1 6.3,0.98 Z M 4.22,2.82 C 3.9,2.8 3.52,3.04 3.06,3.72 2.98,3.85 3.05,4.03 3.21,3.96 4,3.01 4.43,3.16 5.11,3.94 5.26,3.99 5.31,3.76 5.26,3.72 4.94,3.28 4.62,2.84 4.22,2.82 Z m 4.37,0 C 8.28,2.8 7.91,3.04 7.44,3.72 7.36,3.85 7.42,4.03 7.59,3.96 8.37,3.01 8.8,3.16 9.49,3.94 9.63,3.99 9.68,3.76 9.64,3.72 9.32,3.28 9,2.84 8.59,2.82 Z M 9.54,4.76 9.5,4.77 c -2,1.95 -4.09,2.2 -6.29,0 -0.07,-0.07 -0.07,0.1 -0.07,0.2 0,0.1 0,0.1 0.07,0.19 2.1,2.14 4.2,2.09 6.3,0 C 9.57,5.08 9.55,5.06 9.55,4.94 V 4.76 Z M 5.58,7.39 c -0.06,0.14 -0.1,0.27 0,0.39 0.6,0.26 1.1,0.19 1.6,0 a 0.4,0.4 0 0 0 0,-0.4 c -0.5,0.2 -1.03,0.27 -1.6,0 z"
     id="path2"
     inkscape:connector-curvature="0"
     style="fill:#a02c2c" />
</svg>
